X: 3
T:Mrs Keir of Millbank's Reel
M:4/4
L:1/8
B:Calvert Collection - Page 8
Z:P Whittaker 2001
K:A Minor
E |A AB (3cde) dc |{c}BGdG BGGB |
  |A AB (3cde) de | dBgB A/2A/2AA||
e |ae (3cde) a2 ea |gaeg BGGe
  |ab/2a/2 gade| dBgB A/2A/2A Ae
  |ae (3cde) a2 ea |gaeg BGGB
  |cAdB ecde |  dBgB A/2A/2AA||
